poi/svg/1720.svg

<?xml version="1.0" encoding="UTF-8" standalone="no"?>
<svg
   xmlns:dc="http://purl.org/dc/elements/1.1/"
   xmlns:cc="http://creativecommons.org/ns#"
   xmlns:rdf="http://www.w3.org/1999/02/22-rdf-syntax-ns#"
   xmlns:svg="http://www.w3.org/2000/svg"
   xmlns="http://www.w3.org/2000/svg"
   xmlns:sodipodi="http://sodipodi.sourceforge.net/DTD/sodipodi-0.dtd"
   xmlns:inkscape="http://www.inkscape.org/namespaces/inkscape"
   inkscape:version="1.0 (4035a4fb49, 2020-05-01)"
   sodipodi:docname="1720.svg"
   id="svg20"
   version="1.2"
   viewBox="0 0 42.519639 42.519639"
   height="14.999999mm"
   width="14.999999mm">
  <metadata
     id="metadata24">
    <rdf:RDF>
      <cc:Work
         rdf:about="">
        <dc:format>image/svg+xml</dc:format>
        <dc:type
           rdf:resource="http://purl.org/dc/dcmitype/StillImage" />
        <dc:title>Qt SVG Document</dc:title>
      </cc:Work>
    </rdf:RDF>
  </metadata>
  <sodipodi:namedview
     inkscape:current-layer="svg20"
     inkscape:window-maximized="0"
     inkscape:window-y="0"
     inkscape:window-x="0"
     inkscape:cy="28.346482"
     inkscape:cx="28.346482"
     inkscape:zoom="5.8410537"
     showgrid="false"
     id="namedview22"
     inkscape:window-height="480"
     inkscape:window-width="1034"
     inkscape:pageshadow="2"
     inkscape:pageopacity="0"
     guidetolerance="10"
     gridtolerance="10"
     objecttolerance="10"
     borderopacity="1"
     bordercolor="#666666"
     pagecolor="#ffffff" />
  <title
     id="title2">Qt SVG Document</title>
  <desc
     id="desc4">Generated with Qt</desc>
  <defs
     id="defs6" />
  <g
     transform="translate(5.25984,5.25984)"
     id="g18"
     stroke-linejoin="bevel"
     stroke-linecap="square"
     fill-rule="evenodd"
     stroke-width="1"
     stroke="#000000"
     fill="none">
    <g
       id="g10"
       font-style="normal"
       font-weight="400"
       font-size="7.8px"
       font-family="'MS Shell Dlg 2'"
       stroke="none"
       fill-opacity="1"
       fill="#b75800">
      <path
         id="path8"
         d="M 37.2598,16 C 37.2598,27.7415 27.7415,37.2598 16,37.2598 4.25851,37.2598 -5.25984,27.7415 -5.25984,16 -5.25984,4.25851 4.25851,-5.25984 16,-5.25984 27.7415,-5.25984 37.2598,4.25851 37.2598,16"
         fill-rule="evenodd"
         vector-effect="non-scaling-stroke" />
    </g>
    <g
       id="g14"
       font-style="normal"
       font-weight="400"
       font-size="7.8px"
       font-family="'MS Shell Dlg 2'"
       transform="translate(16,13.1654)"
       stroke="none"
       fill-opacity="0.94902"
       fill="#ffffff">
      <path
         id="path12"
         d="M 11.665,1.14941 V 4.06787 L 7.69678,6.65039 11.665,5.30664 v 3.7793 L 7.96973,10.8496 11.665,9.61084 v 5.12306 l -0.6088,-3.0235 v 3.2754 L -4.45996,14.125 -5.97168,14.7339 h -2.45654 l -3.17038,-0.3569 -0.5249,-4.1993 1.3437,-0.81881 h -1.8896 l 1.8896,-5.375 -1.6797,2.91845 0.8609,-4.51416 -0.252,-1.23877 L -8.68018,-2 l -3.61132,0.94482 1.5117,-2.37255 3.21242,-3.86329 6.634763,-1.32275 L 1.98584,-8.4458 -1.5415,-4.22559 4.00146,-8.61377 8.22168,-7.66895 4.77832,-3.5957 8.68359,-6.8501 10.1953,-3.23877 7.0249,0.372559 9.37646,-1.66406 H 10.8042 L 11.665,1.14941 M 2.84668,12.8862 1.90186,10.9336 0.390137,10.8496 3.49756,6.16748 0.306152,9.08594 1.08301,5.05469 3.22461,1.69531 3.91748,-1.58008 1.54492,-1.91602 l 2.37256,-6.27783 -5.29102,4.8711 -0.81884,2.26757 -4.19922,2.66651 2.75049,-0.46192 -1.59571,3.82129 -2.83447,3.21241 1.76367,0.08398 -1.17578,2.77151 0.65088,0.4199 0.35693,3.1914 3.2544,-1.6797 6.06787,-0.084"
         fill-rule="evenodd"
         vector-effect="none" />
    </g>
    <g
       id="g16"
       font-style="normal"
       font-weight="400"
       font-size="7.8px"
       font-family="'MS Shell Dlg 2'"
       stroke="none"
       fill-opacity="1"
       fill="#b75800" />
  </g>
</svg>

<?xml version="1.0" encoding="UTF-8" standalone="no"?>
<svg width="11.2889mm" height="11.2889mm"
 viewBox="0 0 32 32"
 xmlns="http://www.w3.org/2000/svg" xmlns:xlink="http://www.w3.org/1999/xlink"  version="1.2" baseProfile="tiny">
<title>Qt SVG Document</title>
<desc>Generated with Qt</desc>
<defs>
</defs>
<g fill="none" stroke="black" stroke-width="1" fill-rule="evenodd" stroke-linecap="square" stroke-linejoin="bevel" >

<g fill="#b75800" fill-opacity="1" stroke="none" transform="matrix(1,0,0,1,0,0)"
font-family="MS Shell Dlg 2" font-size="7.8" font-weight="400" font-style="normal" 
>
<path vector-effect="non-scaling-stroke" fill-rule="evenodd" d="M37.2598,16 C37.2598,27.7415 27.7415,37.2598 16,37.2598 C4.25851,37.2598 -5.25984,27.7415 -5.25984,16 C-5.25984,4.25851 4.25851,-5.25984 16,-5.25984 C27.7415,-5.25984 37.2598,4.25851 37.2598,16 "/>
</g>

<g fill="#ffffff" fill-opacity="0.94902" stroke="none" transform="matrix(1,0,0,1,16,13.1654)"
font-family="MS Shell Dlg 2" font-size="7.8" font-weight="400" font-style="normal" 
>
<path vector-effect="none" fill-rule="evenodd" d="M11.665,1.14941 L11.665,4.06787 L7.69678,6.65039 L11.665,5.30664 L11.665,9.08594 L7.96973,10.8496 L11.665,9.61084 L11.665,14.7339 L11.0562,11.7104 L11.0562,14.9858 L-4.45996,14.125 L-5.97168,14.7339 L-8.42822,14.7339 L-11.5986,14.377 L-12.1235,10.1777 L-10.7798,9.35889 L-12.6694,9.35889 L-10.7798,3.98389 L-12.4595,6.90234 L-11.5986,2.38818 L-11.8506,1.14941 L-8.68018,-2 L-12.2915,-1.05518 L-10.7798,-3.42773 L-7.56738,-7.29102 L-0.932617,-8.61377 L1.98584,-8.4458 L-1.5415,-4.22559 L4.00146,-8.61377 L8.22168,-7.66895 L4.77832,-3.5957 L8.68359,-6.8501 L10.1953,-3.23877 L7.0249,0.372559 L9.37646,-1.66406 L10.8042,-1.66406 L11.665,1.14941 M2.84668,12.8862 L1.90186,10.9336 L0.390137,10.8496 L3.49756,6.16748 L0.306152,9.08594 L1.08301,5.05469 L3.22461,1.69531 L3.91748,-1.58008 L1.54492,-1.91602 L3.91748,-8.19385 L-1.37354,-3.32275 L-2.19238,-1.05518 L-6.3916,1.61133 L-3.64111,1.14941 L-5.23682,4.9707 L-8.07129,8.18311 L-6.30762,8.26709 L-7.4834,11.0386 L-6.83252,11.4585 L-6.47559,14.6499 L-3.22119,12.9702 L2.84668,12.8862"/>
</g>

<g fill="#b75800" fill-opacity="1" stroke="none" transform="matrix(1,0,0,1,0,0)"
font-family="MS Shell Dlg 2" font-size="7.8" font-weight="400" font-style="normal" 
>
</g>
</g>
</svg>
